!!!COM: Palestrina, Giovanni Perluigi da
!!!OPR: Iste confessor
!!!OTL: Gloria
**kern	**kern	**kern	**kern
*Ibass	*Itenor	*Icalto	*Icant
!Bassus	!Tenor	!Altus	!Cantus
*clefF4	*clefGv2	*clefG2	*clefG2
*k[]	*k[]	*k[]	*k[]
*G:mix	*G:mix	*G:mix	*G:mix
*M4/2	*M4/2	*M4/2	*M4/2
=1	=1	=1	=1
1.G	1.B	1.d	1.g
2F	2A	2d	2a
=2	=2	=2	=2
2E	2B	2e	2.g
2C	2c	2e	.
.	.	.	4e
2D	2A	2d	2f#
2E	2G	2c#	2g
=3	=3	=3	=3
2D	2A	2d	2g
2D	2A	2d	2f#
1G	1G	2B	1g
.	.	[2d	.
=4	=4	=4	=4
2.F	1.A	2d]	0r
.	.	2c	.
4F	.	.	.
2F	.	2d	.
2E	2G	2e	.
=5	=5	=5	=5
1D	2A	1f	1r
.	2B	.	.
2C	1c	2e	2r
2C	.	2e	2cc
=6	=6	=6	=6
2F	1c	2f	2a
2C	.	2e	2cc
1G	1r	1d	1b
=7	=7	=7	=7
2.F	2.c	2.f	2.a
4F	4c	4f	4a
2F	2A	2f	2a
2F	2c	2f	2a
=8	=8	=8	=8
1G	1B	1d	1g
1D	1A	1d	1f#
=9	=9	=9	=9
1E	2r	1B	1g
.	1G	.	.
1D	.	1d	1a
.	2F	.	.
=10	=10	=10	=10
2C#	2E	2e	2a
2D	2F#	2d	2a
1GG	1G	2d	2b
.	.	2B	2dd
=11	=11	=11	=11
1GG	1G	2d	2b
.	.	2B	2dd
2C	2E	2.e	2.cc
2C	2G	.	.
.	.	8d	4b
.	.	8c	.
=12	=12	=12	=12
1FF	2.F	4d	2a
.	.	4c	.
.	.	1c	2a
.	4E	.	.
1GG	2D	.	[1g
.	2D	2B	.
=13	=13	=13	=13
2.C	2C	2c	1g]
.	1c	1e	.
4D	.	.	.
4E	.	.	2r
4F	.	.	.
2G	2B	2d	[2g
=14	=14	=14	=14
1C	2c	2e	4g]
.	.	.	4g
.	2c	2e	2g
1r	2A	2f#	2a
.	2G	[2g	2b
=15	=15	=15	=15
1r	1d	2g]	2a
.	.	2f#	2a
2r	2G	2g	1g
[2G	[2B	[2d	.
=16	=16	=16	=16
2G]	2B]	2d]	0r
2F#	2A	2d	.
2G	2B	2e	.
2A	2c	2e	.
=17	=17	=17	=17
2D	2.d	1f	0r
2F	.	.	.
.	4c	.	.
2G	2B	2d	.
2E	[2c	2e	.
=18	=18	=18	=18
2F	4c]	1d	1r
.	8B	.	.
.	8A	.	.
2G	2B	.	.
[1C	[1c	2c	2r
.	.	[2e	[2g
=19	=19	=19	=19
1C]	1c]	4e]	4g]
.	.	4e	4g
.	.	2e	2g
1r	1r	2f	2a
.	.	2c	2cc
=20	=20	=20	=20
0r	0r	2d	2b
.	.	2e	2cc
.	.	1f	1a
=21	=21	=21	=21
2r	2r	2e	2g
2.C	2.G	2.c	2.e
4C	4G	4c	4e
2E	2G	2B	2e
=22	=22	=22	=22
2D	2A	2d	2f
2AA	2c	2e	1a
2E	2B	2e	.
2C	2c	2e	[2g
=23	=23	=23	=23
1D	1A	1d	2g]
.	.	.	2f#
2r	2r	1G	1g
[2G	[2B	.	.
=24	=24	=24	=24
4G]	4B]	0r	0r
4G	4B	.	.
2F	2A	.	.
2E	2c	.	.
2D	2B	.	.
=25	=25	=25	=25
2F	2A	0r	0r
2E	2G	.	.
2.D	4B	.	.
.	4A	.	.
.	[2A	.	.
4C	.	.	.
=26	=26	=26	=26
2BB	2A]	2r	1r
2BB	2G#	1d	.
1AA	1A	.	[1e
.	.	4c#	.
.	.	4B	.
=27	=27	=27	=27
1AA	2r	1c#	1e]
.	1A	.	.
1D	.	1d	1f#
.	2A	.	.
=28	=28	=28	=28
4C	1c	1e	1g
4D	.	.	.
4E	.	.	.
4F	.	.	.
2.G	2.B	2d	1g
.	.	[2d	.
4F	4A	.	.
=29	=29	=29	=29
1E	1G	4d]	2r
.	.	4d	.
.	.	2c	2.g
1D	1d	2B	.
.	.	.	4g
.	.	2A	2f
=30	=30	=30	=30
0r	0r	2c	2e
.	.	2B	2d
.	.	4A	2f
.	.	4B	.
.	.	4c	2e
.	.	8B	.
.	.	8A	.
=31	=31	=31	=31
0r	0r	2B	4d
.	.	.	4e
.	.	2A	4f
.	.	.	8e
.	.	.	8d
.	.	2c	2e
.	.	2d	2f
=32	=32	=32	=32
0r	0r	2e	2g
.	.	2.f	2a
.	.	.	1d
.	.	4e	.
.	.	[2d	.
=33	=33	=33	=33
1r	0A	2d]	1e
.	.	2c#	.
1D	.	2d	2f#
.	.	2d	2f#
=34	=34	=34	=34
1G	1B	1d	1g
2C	2c	2e	2g
2C	2c	2e	2g
=35	=35	=35	=35
2G	2B	2d	2g
2E	2c	1e	2g
1F	1A	.	1a
.	.	2d	.
=36	=36	=36	=36
1E	1B	2e	0g
.	.	2.e	.
1C	2r	.	.
.	.	4d	.
.	[2e	[2c	.
=37	=37	=37	=37
1G	2e]	2c]	2r
.	2d	2B	1g
2.E	2c	[1e	.
.	2B	.	2g
4D	.	.	.
=38	=38	=38	=38
2C	4A	2e]	2a
.	4E	.	.
2BB	2.G	2d	2b
1AA	.	2c	1cc
.	8F	.	.
.	8E	.	.
.	2F#	2A	.
=39	=39	=39	=39
1GG	2G	2r	2b
.	2G	2d	2g
1r	1c	1e	1g
=40	=40	=40	=40
0r	2F	2f	2a
.	2F	2f	2a
.	2c	2e	2g
.	2A	2c	2a
=41	=41	=41	=41
0r	1B-	1.d	1.f
.	1A	.	.
.	.	2c#	2e
=42	=42	=42	=42
2r	2r	2r	2r
1D	1A	1d	1f#
2D	2A	2d	2f#
=43	=43	=43	=43
1D	1A	1d	1f#
1r	1c	2.e	2.g
.	.	4f#	4a
=44	=44	=44	=44
2.E	2.G	2g	2b
.	.	2e	2cc
4F#	4A	.	.
2G	2B	2d	2b
2C	2c	[2e	[2a
=45	=45	=45	=45
2E	2B	2e]	4a]
.	.	.	4g
2E	2G	2c	1g
1D	1A	2.d	.
.	.	.	2f#
.	.	4c	.
=46	=46	=46	=46
1GG	2G	2B	[0g
.	2B	2d	.
1r	1c	1e	.
=47	=47	=47	=47
0r	2B	2d	1g]
.	2c	2e	.
.	2A	2f	1r
.	2B	2g	.
=48	=48	=48	=48
0r	2c	2e	0r
.	2.d	2.f	.
.	4c	4e	.
.	[2c	2e	.
=49	=49	=49	=49
1G	2c]	1d	1g
.	2B	.	.
2C	2.c	2.e	2g
[2C	.	.	[2g
.	4c	4e	.
=50	=50	=50	=50
2C]	2e	2c	2g]
2BB	2d	2d	2g
[1C	1c	1e	1g
=51	=51	=51	=51
1C]	1G	2c	2e
.	.	2c	1g
1D	1r	2B	.
.	.	2A	2f
=52	=52	=52	=52
0r	0r	2.c	2e
.	.	.	1g
.	.	4d	.
.	.	2e	.
.	.	2f	2a
=53	=53	=53	=53
1r	1r	2d	2b
.	.	2c	2.cc
1G	2r	1d	.
.	.	.	8b
.	.	.	8a
.	2G	.	2b
=54	=54	=54	=54
2F	2A	1r	1cc
2E	2c	.	.
2F	2c	1d	2r
2G	2B	.	2g
=55	=55	=55	=55
1C	1c	1e	1g
1r	1r	2f	2a
.	.	2e	2cc
=56	=56	=56	=56
1r	1G	2d	2cc
.	.	2d	2b
1C	1E	1c	2cc
.	.	.	[2cc
=57	=57	=57	=57
1AA	1.c	1e	4cc]
.	.	.	4b
.	.	.	2a
[1E	.	1e	2g#
.	4B	.	[2a
.	4A	.	.
=58	=58	=58	=58
1E]	1B	1e	2a]
.	.	.	2g#
2AA	2A	1c#	1a
2A	2A	.	.
=59	=59	=59	=59
2G	2B	0r	0r
2E	2c	.	.
2F#	2A	.	.
[2G	2B	.	.
=60	=60	=60	=60
2G]	1A	1r	1r
2F#	.	.	.
2G	1G	2r	2r
2B-	.	2d	2dd
=61	=61	=61	=61
2A	0r	2e	2cc
2F	.	2f	2a
2G	.	2d	2b
2C	.	2e	[2cc
=62	=62	=62	=62
1G	1r	2d	2cc]
.	.	2.g	2b
1D	2r	.	1a
.	.	8f	.
.	.	8e	.
.	2A	2f#	.
=63	=63	=63	=63
2G	2B	1g	1g
2E	2c	.	.
2F#	2A	1r	1r
[2G	2B	.	.
=64	=64	=64	=64
2G]	1A	2r	2r
2F#	.	2d	2a
2G	1G	2d	2b
2C	.	2e	2cc
=65	=65	=65	=65
2D	1d	2f#	2a
2GG	.	1g	2b
1D	2r	.	1a
.	2A	2f	.
=66	=66	=66	=66
2G	2B	2d	2.g
2C	2c	2e	.
.	.	.	4e
1D	2A	1d	2f#
.	2B	.	[2g
=67	=67	=67	=67
1D	1A	[0d	2g]
.	.	.	2f#
[1GG	[1G	.	[1g
=68	=68	=68	=68
1GG]	1G]	1d]	1g]
==	==	==	==
*-	*-	*-	*-
!!!CDT: 1525/^1526/-1594/2/2
!!!OCY: Italia
!!!AGN: Mass (Paraphrase)
!!!AST: renaissance, vocal
!!!ASW: Hymn
!!!PWK: Masses, Book 5
!!!RNB: Cadence finals: D
!!!YOR: Le Opere Complete, v. 15, p. 72
!!!YOO: Rome, Italy: Fratelli Scalera
!!!END: 1992//
!!!EED: John Miller
!!!YEC: Copyright 2000, John Miller
!!!YEN: United States of America
!!!YEM: Rights to all derivative electronic formats reserved.
!!!YEM: Refer to licensing agreement for further details.
!!!YEM: This file must be accompanied by the licensing agreement.
!!!YEM: A copy of the licensing agreement may be found at http://www.music-cog.ohio-state.edu/HumdrumDatabases/Palestrina/license.txt
!!!EMD: converted to Humdrum by Bret Aarden
